src/images/github.svg

<?xml version="1.0" encoding="UTF-8"?>
<svg width="40px" height="40px" viewBox="0 0 40 40" version="1.1" xmlns="http://www.w3.org/2000/svg" xmlns:xlink="http://www.w3.org/1999/xlink">
    <!-- Generator: Sketch 54.1 (76490) - https://sketchapp.com -->
    <title>GitHub</title>
    <desc>Created with Sketch.</desc>
    <defs>
        <polygon id="path-1" points="0 -0.0005 39.489697 -0.0005 39.489697 39.7179612 0 39.7179612"></polygon>
    </defs>
    <g id="Page-1" stroke="none" stroke-width="1" fill="none" fill-rule="evenodd">
        <g id="Contact" transform="translate(-52.000000, -944.000000)">
            <g id="Social" transform="translate(52.000000, 944.000000)">
                <g id="GitHub">
                    <mask id="mask-2" fill="white">
                        <use xlink:href="#path-1"></use>
                    </mask>
                    <g id="Clip-2"></g>
                    <path d="M19.7437576,-0.000625 C8.84072727,-0.000625 -0.000484848485,9.116875 -0.000484848485,20.363125 C-0.000484848485,29.358125 5.65648485,36.990625 13.5037576,39.683125 C14.4916364,39.869375 14.8516364,39.241875 14.8516364,38.701875 C14.8516364,38.218125 14.8346667,36.938125 14.8249697,35.238125 C9.33284848,36.469375 8.17406061,32.509375 8.17406061,32.509375 C7.27587879,30.156875 5.98133333,29.530625 5.98133333,29.530625 C4.18860606,28.266875 6.11709091,28.293125 6.11709091,28.293125 C8.09890909,28.436875 9.14133333,30.390625 9.14133333,30.390625 C10.9025455,33.503125 13.7619394,32.604375 14.888,32.083125 C15.0673939,30.766875 15.5764848,29.869375 16.1413333,29.360625 C11.7570909,28.846875 7.14739394,27.100625 7.14739394,19.296875 C7.14739394,17.074375 7.91709091,15.256875 9.18012121,13.833125 C8.97648485,13.318125 8.29890909,11.248125 9.37284848,8.445625 C9.37284848,8.445625 11.0310303,7.896875 14.8031515,10.531875 C16.377697,10.080625 18.0673939,9.854375 19.7461818,9.846875 C21.4225455,9.854375 23.1122424,10.080625 24.6892121,10.531875 C28.4589091,7.896875 30.1134545,8.445625 30.1134545,8.445625 C31.1910303,11.248125 30.5134545,13.318125 30.3098182,13.833125 C31.5752727,15.256875 32.3401212,17.074375 32.3401212,19.296875 C32.3401212,27.119375 27.7231515,28.840625 23.3243636,29.345625 C24.0334545,29.973125 24.6649697,31.216875 24.6649697,33.115625 C24.6649697,35.838125 24.6407273,38.034375 24.6407273,38.701875 C24.6407273,39.245625 24.9958788,39.879375 25.998303,39.680625 C33.8370909,36.983125 39.4904242,29.355625 39.4904242,20.363125 C39.4904242,9.116875 30.6492121,-0.000625 19.7437576,-0.000625" id="Fill-1" fill="#FEFEFE" mask="url(#mask-2)"></path>
                </g>
            </g>
        </g>
    </g>
</svg>

<svg width="40" height="40" xmlns="http://www.w3.org/2000/svg" xmlns:xlink="http://www.w3.org/1999/xlink"><defs><path id="a" d="M0 0h39.49v39.718H0z"/></defs><g fill="none" fill-rule="evenodd"><mask id="b" fill="#fff"><use xlink:href="#a"/></mask><path d="M19.744 0C8.84 0 0 9.116 0 20.362c0 8.995 5.656 16.628 13.504 19.32.988.186 1.348-.441 1.348-.981 0-.484-.017-1.764-.027-3.464-5.492 1.231-6.65-2.729-6.65-2.729-.9-2.352-2.194-2.978-2.194-2.978-1.792-1.264.136-1.238.136-1.238 1.982.144 3.024 2.098 3.024 2.098 1.762 3.112 4.62 2.213 5.747 1.692.18-1.316.688-2.214 1.253-2.722-4.384-.514-8.994-2.26-8.994-10.064 0-2.223.77-4.04 2.033-5.464-.204-.515-.881-2.585.193-5.387 0 0 1.658-.55 5.43 2.086a18.374 18.374 0 014.943-.685 18.4 18.4 0 014.943.685c3.77-2.635 5.424-2.086 5.424-2.086 1.078 2.802.4 4.872.197 5.387 1.265 1.424 2.03 3.241 2.03 5.464 0 7.822-4.617 9.544-9.016 10.049.71.627 1.341 1.87 1.341 3.77 0 2.722-.024 4.918-.024 5.586 0 .544.355 1.177 1.357.979 7.84-2.698 13.492-10.325 13.492-19.318C39.49 9.117 30.65 0 19.744 0" fill="#FEFEFE" mask="url(#b)"/></g></svg>
